;FLAVOR:Marlin
;TIME:9286
;Filament used: 6.34513m
;Layer height: 0.2
;MINX:90.6
;MINY:24.429
;MINZ:0.2
;MAXX:189.998
;MAXY:142.494
;MAXZ:26.558
;Generated with Cura_SteamEngine 4.6.1
M82 ;absolute extrusion mode
; Ender 3 Custom Start G-code
M140 S60 ; Preheat Bed and wait
M104 S200 T0 ; start preheating hotend WITHOUT wait to what is set in Cura

M280 P0 S160 ; BLTouch alarm release
G4 P100 ; delay for BLTouch
G28 ; home
M420 S1 ; Bed Leveling On

M109 S200 T0 ; Make sure hotend is full temp
M190 S60 ; Make sure bed is full temp
G92 E0 ; Reset Extruder
G1 Z2.0 F3000 ; Move Z Axis up little to prevent scratching of Heat Bed
G1 X0.1 Y20 Z0.3 F5000.0 ; Move to start position
G1 X0.1 Y200.0 Z0.3 F1500.0 E15 ; Draw the first line
G1 X0.4 Y200.0 Z0.3 F5000.0 ; Move to side a little
G1 X0.4 Y20 Z0.3 F1500.0 E30 ; Draw the second line
G92 E0 ; Reset Extruder
G1 E-2 F1800 ;retract 2mm at 30mm/s (should stop ooz?)
G1 Z2.0 F3000 ; Move Z Axis up little to prevent scratching of Heat Bed
G1 E1.8 F1800 ; push filament out 1.8mm to restart extrusion.
G92 E0
G92 E0
G1 F1800 E-8
;LAYER_COUNT:107
;LAYER:0
M107
G0 F6000 X90.759 Y29.257 Z0.2
;TYPE:SKIRT
G1 F1800 E0
G1 F1200 X90.953 Y28.808 E0.01627
G1 X91.218 Y28.396 E0.03256
G1 X91.442 Y28.136 E0.04398
G1 X91.695 Y27.874 E0.05609
G1 X91.941 Y27.646 E0.06725
G1 X92.132 Y27.488 E0.07549
G1 X92.345 Y27.327 E0.08437
G1 X92.543 Y27.191 E0.09236
G1 X92.791 Y27.038 E0.10205
G1 X93.001 Y26.922 E0.11003
G1 X93.222 Y26.812 E0.11824
G1 X93.42 Y26.723 E0.12546
G1 X93.749 Y26.598 E0.13717
G1 X94.038 Y26.507 E0.14725
G1 X94.434 Y26.411 E0.1608
G1 X94.803 Y26.348 E0.17325
G1 X95.308 Y26.305 E0.19011
G1 X150.535 Y26.296 E2.02696
G1 X150.768 Y26.019 E2.039
G1 X151.139 Y25.7 E2.05528
G1 X151.558 Y25.446 E2.07157
G1 X152.012 Y25.263 E2.08785
G1 X152.49 Y25.157 E2.10414
G1 X152.9 Y25.129 E2.11781
G1 X157.3 Y25.129 E2.26415
G1 X157.788 Y25.169 E2.28044
G1 X158.263 Y25.288 E2.29672
G1 X158.712 Y25.482 E2.31299
G1 X159.124 Y25.747 E2.32928
G1 X159.487 Y26.075 E2.34556
G1 X159.747 Y26.394 E2.35924
G1 X159.847 Y26.535 E2.36499
G1 X160.097 Y26.956 E2.38128
G1 X160.275 Y27.412 E2.39756
G1 X160.376 Y27.89 E2.41381
G1 X160.4 Y28.27 E2.42647
G1 X160.4 Y40.029 E2.81758
G1 X160.36 Y40.517 E2.83386
G1 X160.241 Y40.992 E2.85015
G1 X160.047 Y41.441 E2.86642
G1 X159.782 Y41.853 E2.88271
G1 X159.454 Y42.216 E2.89898
G1 X159.127 Y42.482 E2.913
G1 X158.985 Y42.582 E2.91878
G1 X158.563 Y42.83 E2.93506
G1 X158.107 Y43.006 E2.95132
G1 X157.628 Y43.106 E2.96759
G1 X157.258 Y43.129 E2.97992
G1 X155.9 Y43.129 E3.02509
G1 X155.412 Y43.089 E3.04138
G1 X155.2 Y43.036 E3.04864
G1 X155.2 Y47.421 E3.19449
G1 X155.505 Y47.355 E3.20487
G1 X155.898 Y47.329 E3.21797
G1 X157.256 Y47.328 E3.26314
G1 X157.744 Y47.368 E3.27942
G1 X158.219 Y47.486 E3.2957
G1 X158.668 Y47.68 E3.31197
G1 X158.997 Y47.883 E3.32483
G1 X159.139 Y47.984 E3.33062
G1 X159.513 Y48.3 E3.34691
G1 X159.831 Y48.672 E3.36318
G1 X160.085 Y49.09 E3.37945
G1 X160.267 Y49.545 E3.39575
G1 X160.372 Y50.023 E3.41203
G1 X160.4 Y50.429 E3.42556
G1 X160.401 Y62.187 E3.81664
G1 X160.361 Y62.675 E3.83292
G1 X160.242 Y63.149 E3.84918
G1 X160.048 Y63.599 E3.86548
G1 X159.846 Y63.926 E3.87826
G1 X159.745 Y64.068 E3.88406
G1 X159.429 Y64.442 E3.90034
G1 X159.057 Y64.76 E3.91662
G1 X158.639 Y65.014 E3.93289
G1 X158.184 Y65.196 E3.94919
G1 X157.706 Y65.301 E3.96546
G1 X157.3 Y65.329 E3.979
G1 X152.9 Y65.329 E4.12534
G1 X152.412 Y65.289 E4.14163
G1 X151.937 Y65.17 E4.15792
G1 X151.488 Y64.976 E4.17418
G1 X151.076 Y64.711 E4.19048
G1 X150.713 Y64.383 E4.20675
G1 X150.532 Y64.161 E4.21628
G1 X95.31 Y64.153 E6.05297
G1 X94.88 Y64.122 E6.06731
G1 X94.597 Y64.081 E6.07682
G1 X94.235 Y64.006 E6.08911
G1 X93.961 Y63.931 E6.09856
G1 X93.646 Y63.825 E6.10961
G1 X93.442 Y63.744 E6.11692
G1 X93.207 Y63.639 E6.12548
G1 X93.011 Y63.541 E6.13276
G1 X92.728 Y63.38 E6.14359
G1 X92.416 Y63.179 E6.15594
G1 X92.125 Y62.966 E6.16793
G1 X91.937 Y62.81 E6.17606
G1 X91.738 Y62.628 E6.18503
G1 X91.559 Y62.45 E6.19342
G1 X91.326 Y62.194 E6.20494
G1 X91.038 Y61.798 E6.22122
G1 X90.818 Y61.36 E6.23752
G1 X90.673 Y60.893 E6.25379
G1 X90.6 Y60.237 E6.27574
G1 X90.6 Y30.22 E7.27411
G1 X90.64 Y29.732 E7.2904
G1 X90.759 Y29.257 E7.30668
G0 F6000 X91.158 Y29.326
G1 F1200 X91.352 Y28.914 E7.32183
G1 X91.73 Y28.414 E7.34268
G1 X91.983 Y28.152 E7.35479
G1 X92.196 Y27.955 E7.36444
G1 X92.387 Y27.797 E7.37269
G1 X92.572 Y27.657 E7.3804
G1 X92.77 Y27.521 E7.38839
G1 X92.985 Y27.388 E7.3968
G1 X93.195 Y27.272 E7.40478
G1 X93.386 Y27.177 E7.41187
G1 X93.584 Y27.088 E7.4191
G1 X93.869 Y26.979 E7.42924
G1 X94.158 Y26.888 E7.43932
G1 X94.501 Y26.805 E7.45106
G1 X94.87 Y26.742 E7.46351
G1 X95.308 Y26.705 E7.47813
G1 X150.728 Y26.696 E9.32141
G1 X150.779 Y26.625 E9.32431
G1 X151.074 Y26.278 E9.33946
G1 X151.426 Y25.988 E9.35463
G1 X151.822 Y25.763 E9.36978
G1 X152.252 Y25.611 E9.38495
G1 X152.9 Y25.529 E9.40667
G1 X157.3 Y25.529 E9.55302
G1 X157.754 Y25.569 E9.56818
G1 X158.194 Y25.687 E9.58333
G1 X158.606 Y25.881 E9.59847
G1 X158.979 Y26.144 E9.61365
G1 X159.421 Y26.625 E9.63538
G1 X159.521 Y26.766 E9.64113
G1 X159.751 Y27.159 E9.65628
G1 X159.909 Y27.587 E9.67145
G1 X159.989 Y28.035 E9.68659
G1 X160 Y28.27 E9.69441
G1 X160 Y40.029 E10.08552
G1 X159.96 Y40.483 E10.10068
G1 X159.842 Y40.923 E10.11583
G1 X159.648 Y41.335 E10.13097
G1 X159.385 Y41.708 E10.14615
G1 X158.897 Y42.155 E10.16816
G1 X158.755 Y42.255 E10.17394
G1 X158.361 Y42.483 E10.18908
G1 X157.933 Y42.64 E10.20424
G1 X157.258 Y42.729 E10.22689
G1 X155.9 Y42.729 E10.27206
G1 X155.446 Y42.689 E10.28721
G1 X155.006 Y42.571 E10.30237
G1 X154.8 Y42.474 E10.30994
G1 X154.8 Y47.974 E10.49287
G1 X155.234 Y47.816 E10.50823
G1 X155.898 Y47.729 E10.53051
G1 X157.256 Y47.728 E10.57567
G1 X157.71 Y47.768 E10.59083
G1 X158.15 Y47.886 E10.60598
G1 X158.563 Y48.079 E10.62114
G1 X158.765 Y48.209 E10.62913
G1 X158.907 Y48.31 E10.63493
G1 X159.254 Y48.606 E10.6501
G1 X159.544 Y48.957 E10.66524
G1 X159.767 Y49.354 E10.68039
G1 X159.919 Y49.784 E10.69556
G1 X160 Y50.429 E10.71718
G1 X160.001 Y62.187 E11.10825
G1 X159.961 Y62.641 E11.12341
G1 X159.843 Y63.081 E11.13856
G1 X159.649 Y63.493 E11.15371
G1 X159.52 Y63.694 E11.16165
G1 X159.419 Y63.836 E11.16745
G1 X159.123 Y64.183 E11.18262
G1 X158.772 Y64.473 E11.19776
G1 X158.375 Y64.696 E11.21291
G1 X157.945 Y64.848 E11.22807
G1 X157.3 Y64.929 E11.2497
G1 X152.9 Y64.929 E11.39604
G1 X152.446 Y64.889 E11.4112
G1 X152.006 Y64.771 E11.42635
G1 X151.594 Y64.577 E11.4415
G1 X151.221 Y64.314 E11.45668
G1 X150.774 Y63.826 E11.47869
G1 X150.728 Y63.761 E11.48134
G1 X95.31 Y63.753 E13.32455
G1 X94.937 Y63.726 E13.33698
G1 X94.654 Y63.685 E13.3465
G1 X94.341 Y63.62 E13.35713
G1 X94.067 Y63.545 E13.36658
G1 X93.794 Y63.453 E13.37616
G1 X93.59 Y63.372 E13.38346
G1 X93.386 Y63.282 E13.39087
G1 X93.19 Y63.184 E13.39816
G1 X92.945 Y63.044 E13.40755
G1 X92.633 Y62.843 E13.41989
G1 X92.381 Y62.658 E13.43029
G1 X92.193 Y62.502 E13.43842
G1 X92.02 Y62.345 E13.44619
G1 X91.841 Y62.167 E13.45458
G1 X91.629 Y61.933 E13.46508
G1 X91.363 Y61.563 E13.48024
G1 X91.166 Y61.152 E13.4954
G1 X91.044 Y60.713 E13.51055
G1 X91 Y60.237 E13.52645
G1 X91 Y30.22 E14.52482
G1 X91.04 Y29.766 E14.53998
G1 X91.158 Y29.326 E14.55513
G0 F6000 X91.558 Y29.401
G1 F1200 X91.751 Y29.029 E14.56907
G1 X92.017 Y28.692 E14.58335
G1 X92.27 Y28.43 E14.59547
G1 X92.451 Y28.263 E14.60366
G1 X92.642 Y28.105 E14.6119
G1 X92.798 Y27.987 E14.61841
G1 X92.996 Y27.851 E14.6264
G1 X93.178 Y27.738 E14.63352
G1 X93.388 Y27.622 E14.6415
G1 X93.55 Y27.541 E14.64752
G1 X93.748 Y27.452 E14.65475
G1 X93.989 Y27.361 E14.66331
G1 X94.278 Y27.27 E14.67339
G1 X94.569 Y27.199 E14.68335
G1 X94.938 Y27.136 E14.6958
G1 X95.308 Y27.105 E14.70815
G1 X150.951 Y27.096 E16.55885
G1 X151.005 Y26.997 E16.5626
G1 X151.105 Y26.856 E16.56835
G1 X151.379 Y26.539 E16.58228
G1 X151.708 Y26.28 E16.59621
G1 X152.081 Y26.087 E16.61018
G1 X152.483 Y25.969 E16.62411
G1 X152.9 Y25.929 E16.63805
G1 X157.3 Y25.929 E16.78439
G1 X157.717 Y25.969 E16.79832
G1 X158.119 Y26.087 E16.81226
G1 X158.491 Y26.28 E16.8262
G1 X158.82 Y26.539 E16.84012
G1 X159.095 Y26.856 E16.85408
G1 X159.195 Y26.997 E16.85983
G1 X159.403 Y27.361 E16.87377
G1 X159.539 Y27.757 E16.8877
G1 X159.6 Y28.27 E16.90488
G1 X159.6 Y40.029 E17.29599
G1 X159.56 Y40.446 E17.30992
G1 X159.442 Y40.848 E17.32386
G1 X159.249 Y41.22 E17.3378
G1 X158.99 Y41.549 E17.35172
G1 X158.667 Y41.828 E17.36592
G1 X158.525 Y41.928 E17.3717
G1 X158.161 Y42.135 E17.38562
G1 X157.764 Y42.27 E17.39957
G1 X157.258 Y42.329 E17.41651
G1 X155.9 Y42.329 E17.46168
G1 X155.483 Y42.289 E17.47561
G1 X155.081 Y42.171 E17.48955
G1 X154.709 Y41.978 E17.50349
G1 X154.4 Y41.73 E17.51667
G1 X154.4 Y48.727 E17.74939
G1 X154.668 Y48.507 E17.76092
G1 X155.035 Y48.306 E17.77484
G1 X155.435 Y48.179 E17.78879
G1 X155.898 Y48.129 E17.80428
G1 X157.256 Y48.128 E17.84945
G1 X157.674 Y48.168 E17.86342
G1 X158.076 Y48.286 E17.87735
G1 X158.533 Y48.535 E17.89466
G1 X158.675 Y48.636 E17.90046
G1 X158.992 Y48.911 E17.91442
G1 X159.251 Y49.24 E17.92834
G1 X159.443 Y49.612 E17.94227
G1 X159.561 Y50.015 E17.95623
G1 X159.6 Y50.429 E17.97006
G1 X159.601 Y62.187 E18.36114
G1 X159.561 Y62.604 E18.37507
G1 X159.443 Y63.006 E18.389
G1 X159.194 Y63.462 E18.40628
G1 X159.093 Y63.604 E18.41208
G1 X158.818 Y63.921 E18.42604
G1 X158.489 Y64.18 E18.43996
G1 X158.117 Y64.372 E18.45389
G1 X157.714 Y64.49 E18.46785
G1 X157.3 Y64.529 E18.48168
G1 X152.9 Y64.529 E18.62803
G1 X152.483 Y64.489 E18.64196
G1 X152.081 Y64.371 E18.6559
G1 X151.709 Y64.178 E18.66984
G1 X151.38 Y63.919 E18.68376
G1 X151.101 Y63.596 E18.69796
G1 X151.001 Y63.454 E18.70373
G1 X150.948 Y63.361 E18.70729
G1 X95.31 Y63.353 E20.55782
G1 X94.995 Y63.33 E20.56833
G1 X94.712 Y63.289 E20.57784
G1 X94.446 Y63.234 E20.58687
G1 X94.172 Y63.159 E20.59632
G1 X93.941 Y63.082 E20.60442
G1 X93.737 Y63.001 E20.61172
G1 X93.565 Y62.924 E20.61799
G1 X93.369 Y62.826 E20.62528
G1 X93.162 Y62.707 E20.63322
G1 X92.85 Y62.506 E20.64556
G1 X92.636 Y62.35 E20.65437
G1 X92.448 Y62.194 E20.6625
G1 X92.302 Y62.061 E20.66906
G1 X92.123 Y61.883 E20.67746
G1 X91.932 Y61.672 E20.68693
G1 X91.691 Y61.33 E20.70084
G1 X91.518 Y60.948 E20.71479
G1 X91.421 Y60.54 E20.72874
G1 X91.4 Y60.237 E20.73884
G1 X91.4 Y30.22 E21.73721
G1 X91.44 Y29.803 E21.75114
G1 X91.558 Y29.401 E21.76508
G0 F6000 X91.958 Y29.483
G1 F1200 X92.148 Y29.156 E21.77766
G1 X92.305 Y28.97 E21.78575
G1 X92.558 Y28.708 E21.79787
G1 X92.706 Y28.571 E21.80457
G1 X92.897 Y28.413 E21.81282
G1 X93.025 Y28.316 E21.81816
G1 X93.223 Y28.18 E21.82615
G1 X93.372 Y28.088 E21.83197
G1 X93.582 Y27.972 E21.83995
G1 X93.714 Y27.906 E21.84486
G1 X93.912 Y27.817 E21.85208
G1 X94.109 Y27.742 E21.85909
G1 X94.398 Y27.651 E21.86917
G1 X94.636 Y27.594 E21.87731
G1 X95.005 Y27.531 E21.88976
G1 X95.308 Y27.505 E21.89987
G1 X151.179 Y27.496 E23.75815
G1 X151.332 Y27.229 E23.76839
G1 X151.432 Y27.088 E23.77414
G1 X151.682 Y26.803 E23.78675
G1 X151.987 Y26.578 E23.79935
G1 X152.332 Y26.421 E23.81196
G1 X152.702 Y26.34 E23.82456
G1 X152.9 Y26.329 E23.83115
G1 X157.3 Y26.329 E23.9775
G1 X157.677 Y26.369 E23.99011
G1 X158.037 Y26.487 E24.00271
G1 X158.364 Y26.677 E24.01529
G1 X158.645 Y26.932 E24.02791
G1 X158.768 Y27.088 E24.03451
G1 X158.868 Y27.229 E24.04026
G1 X159.054 Y27.559 E24.05286
G1 X159.166 Y27.921 E24.06547
G1 X159.2 Y28.27 E24.07713
G1 X159.2 Y40.029 E24.46823
G1 X159.16 Y40.406 E24.48084
G1 X159.042 Y40.766 E24.49344
G1 X158.852 Y41.093 E24.50602
G1 X158.597 Y41.374 E24.51864
G1 X158.436 Y41.501 E24.52546
G1 X158.294 Y41.601 E24.53124
G1 X157.963 Y41.785 E24.54384
G1 X157.601 Y41.896 E24.55643
G1 X157.258 Y41.929 E24.56789
G1 X155.9 Y41.929 E24.61306
G1 X155.523 Y41.889 E24.62567
G1 X155.163 Y41.771 E24.63827
G1 X154.836 Y41.581 E24.65085
G1 X154.627 Y41.402 E24.66
G1 X154.527 Y41.302 E24.6647
G1 X154.289 Y41.007 E24.67731
G1 X154.118 Y40.669 E24.68991
G1 X154.055 Y40.43 E24.69813
G1 X154 Y40.43 E24.69996
G1 X154 Y50.029 E25.01922
G1 X154.048 Y50.029 E25.02082
G1 X154.158 Y49.692 E25.03261
G1 X154.348 Y49.365 E25.04519
G1 X154.527 Y49.156 E25.05434
G1 X154.627 Y49.056 E25.05904
G1 X154.922 Y48.818 E25.07165
G1 X155.26 Y48.647 E25.08425
G1 X155.626 Y48.55 E25.09684
G1 X155.899 Y48.529 E25.10595
G1 X157.257 Y48.528 E25.15112
G1 X157.634 Y48.568 E25.16373
G1 X157.994 Y48.685 E25.17632
G1 X158.301 Y48.861 E25.18809
G1 X158.443 Y48.962 E25.19388
G1 X158.727 Y49.213 E25.20649
G1 X158.952 Y49.518 E25.21909
G1 X159.109 Y49.863 E25.2317
G1 X159.189 Y50.233 E25.24429
G1 X159.2 Y50.429 E25.25082
G1 X159.201 Y62.187 E25.64189
G1 X159.161 Y62.564 E25.6545
G1 X159.043 Y62.924 E25.6671
G1 X158.868 Y63.23 E25.67883
G1 X158.767 Y63.372 E25.68462
G1 X158.516 Y63.656 E25.69723
G1 X158.211 Y63.881 E25.70984
G1 X157.866 Y64.038 E25.72244
G1 X157.496 Y64.118 E25.73503
G1 X157.3 Y64.129 E25.74156
G1 X152.9 Y64.129 E25.88791
G1 X152.523 Y64.089 E25.90052
G1 X152.163 Y63.971 E25.91312
G1 X151.836 Y63.781 E25.9257
G1 X151.555 Y63.526 E25.93832
G1 X151.428 Y63.365 E25.94514
G1 X151.328 Y63.223 E25.95091
G1 X151.182 Y62.961 E25.96089
G1 X95.31 Y62.953 E27.8192
G1 X95.052 Y62.934 E27.8278
G1 X94.769 Y62.893 E27.83732
G1 X94.552 Y62.848 E27.84469
G1 X94.278 Y62.773 E27.85413
G1 X94.089 Y62.71 E27.86076
G1 X93.885 Y62.629 E27.86806
G1 X93.744 Y62.566 E27.8732
G1 X93.548 Y62.468 E27.88049
G1 X93.378 Y62.371 E27.887
G1 X93.066 Y62.17 E27.89934
G1 X92.892 Y62.042 E27.90652
G1 X92.704 Y61.886 E27.91465
G1 X92.584 Y61.777 E27.92004
G1 X92.405 Y61.599 E27.92844
G1 X92.236 Y61.411 E27.93685
G1 X92.02 Y61.099 E27.94947
G1 X91.874 Y60.749 E27.96208
G1 X91.8 Y60.237 E27.97929
G1 X91.8 Y30.22 E28.97766
G1 X91.84 Y29.843 E28.99027
G1 X91.958 Y29.483 E29.00287
G0 F6000 X92.24 Y29.888
G1 F1200 X92.357 Y29.576 E29.01395
G1 X92.593 Y29.247 E29.02742
G1 X92.846 Y28.985 E29.03953
G1 X92.961 Y28.879 E29.04473
G1 X93.152 Y28.721 E29.05298
G1 X93.251 Y28.646 E29.05711
G1 X93.449 Y28.51 E29.0651
G1 X93.565 Y28.439 E29.06962
G1 X93.878 Y28.271 E29.08144
G1 X94.076 Y28.182 E29.08866
G1 X94.23 Y28.124 E29.09413
G1 X94.519 Y28.033 E29.10421
G1 X94.703 Y27.988 E29.11051
G1 X95.072 Y27.925 E29.12296
G1 X95.308 Y27.905 E29.13083
G1 X151.455 Y27.896 E30.99829
G1 X151.558 Y27.624 E31.00796
G1 X151.658 Y27.46 E31.01435
G1 X151.758 Y27.319 E31.0201
G1 X151.982 Y27.072 E31.03119
G1 X152.259 Y26.884 E31.04233
G1 X152.572 Y26.768 E31.05343
G1 X152.9 Y26.729 E31.06442
G1 X157.3 Y26.729 E31.21076
G1 X157.632 Y26.769 E31.22188
G1 X157.944 Y26.886 E31.23297
G1 X158.221 Y27.074 E31.2441
G1 X158.442 Y27.319 E31.25507
G1 X158.542 Y27.46 E31.26082
G1 X158.701 Y27.754 E31.27194
G1 X158.787 Y28.077 E31.28306
G1 X158.8 Y28.27 E31.28949
G1 X158.8 Y40.029 E31.6806
G1 X158.76 Y40.361 E31.69172
G1 X158.643 Y40.673 E31.7028
G1 X158.455 Y40.95 E31.71394
G1 X158.206 Y41.174 E31.72508
G1 X158.064 Y41.274 E31.73085
G1 X157.77 Y41.432 E31.74196
G1 X157.447 Y41.516 E31.75306
G1 X157.258 Y41.529 E31.75936
G1 X155.9 Y41.529 E31.80452
G1 X155.568 Y41.489 E31.81565
G1 X155.256 Y41.372 E31.82673
G1 X154.91 Y41.119 E31.84099
G1 X154.81 Y41.019 E31.84569
G1 X154.604 Y40.756 E31.8568
G1 X154.465 Y40.452 E31.86792
G1 X154.4 Y40.03 E31.88212
G1 X153.6 Y40.029 E31.90873
G1 X153.6 Y50.429 E32.25463
G1 X154.4 Y50.429 E32.28124
G1 X154.44 Y50.097 E32.29236
G1 X154.557 Y49.785 E32.30345
G1 X154.81 Y49.439 E32.3177
G1 X154.91 Y49.339 E32.32241
G1 X155.173 Y49.133 E32.33352
G1 X155.477 Y48.994 E32.34464
G1 X155.899 Y48.929 E32.35884
G1 X157.257 Y48.928 E32.404
G1 X157.589 Y48.968 E32.41513
G1 X157.902 Y49.085 E32.42624
G1 X158.069 Y49.187 E32.43275
G1 X158.211 Y49.288 E32.43854
G1 X158.459 Y49.513 E32.44968
G1 X158.646 Y49.79 E32.4608
G1 X158.762 Y50.103 E32.4719
G1 X158.8 Y50.429 E32.48282
G1 X158.801 Y62.187 E32.87389
G1 X158.761 Y62.519 E32.88501
G1 X158.644 Y62.831 E32.89609
G1 X158.542 Y62.998 E32.9026
G1 X158.441 Y63.14 E32.9084
G1 X158.216 Y63.388 E32.91954
G1 X157.939 Y63.575 E32.93065
G1 X157.626 Y63.691 E32.94175
G1 X157.3 Y63.729 E32.95267
G1 X152.9 Y63.729 E33.09901
G1 X152.568 Y63.689 E33.11014
G1 X152.256 Y63.572 E33.12122
